X: 42078
T: Waltz Quadrille
R: waltz
M: 3/4
K: Dmajor
|:D>E|F2 ^E2 F2|G2 F2 G2|A2 d2- d>F|A4 A>B|
A2 E2 F2|G2- G>F G2|B2 A2- A>D|F4 D>E|
F2- F>^E F2|G2 F2 G2|A2 d2- d>F|A4 A>d|
A2 c2- c>e|g2 (3fgf e>A|A2 B2 c2|d4:|
|:e2|f2- f>f f2|e2- e>f e2|d2 (3cdc B2|A2- A>^G A>B|
A2 E2- E>F|G2 (3FGF G2|B2 A2- A>D|F2- F>A d>e|
f2- f>f f2|e2- e>f e2|d2 c2 (3BcB|A2- A>^G A2|
A2 c2 e2|c2- c>B A2|A2 B2 c2|d4:|

